icons/outline/document-check.svg

<svg width="24" height="24" viewBox="0 0 24 24" fill="none" xmlns="http://www.w3.org/2000/svg">
<path d="M10.125 2.25H5.625C5.00368 2.25 4.5 2.75368 4.5 3.375V20.625C4.5 21.2463 5.00368 21.75 5.625 21.75H18.375C18.9963 21.75 19.5 21.2463 19.5 20.625V11.625M10.125 2.25H10.5C15.4706 2.25 19.5 6.27944 19.5 11.25V11.625M10.125 2.25C11.989 2.25 13.5 3.76104 13.5 5.625V7.125C13.5 7.74632 14.0037 8.25 14.625 8.25H16.125C17.989 8.25 19.5 9.76104 19.5 11.625M9 15L11.25 17.25L15 12" stroke="#0F172A" stroke-width="1.5" stroke-linecap="round" stroke-linejoin="round"/>
</svg>

<svg xmlns="http://www.w3.org/2000/svg" fill="none" viewBox="0 0 24 24" stroke-width="1.5" stroke="currentColor" aria-hidden="true" data-slot="icon">
  <path stroke-linecap="round" stroke-linejoin="round" d="M10.125 2.25h-4.5c-.621 0-1.125.504-1.125 1.125v17.25c0 .621.504 1.125 1.125 1.125h12.75c.621 0 1.125-.504 1.125-1.125v-9M10.125 2.25h.375a9 9 0 0 1 9 9v.375M10.125 2.25A3.375 3.375 0 0 1 13.5 5.625v1.5c0 .621.504 1.125 1.125 1.125h1.5a3.375 3.375 0 0 1 3.375 3.375M9 15l2.25 2.25L15 12"/>
</svg>
